X:1
T:Title
%%score { ( 1 3 ) | ( 2 4 ) }
L:1/8
M:6/4
K:Ab
V:1 treble nm="Grand Piano"
V:3 treble 
V:2 bass 
V:4 bass 
V:1
 z6 z4[Q:1/4=126] [CE]2 | [CE]4 [DF]2 [DF]4 [CE]2 | [Ec]4 [Ec]2 [CA]4 [CE]2 | %3
 [DF]4 [FA]2 [FA]4 A2 |[M:5/4] E2- E2- E6 |[M:1/4] E2 |[M:6/4] G4 G2 G4 E2 | [EA]4 B2 c4 [Ec]2 | %8
 [EB]4 [EG]2 [=DG]4 [DF]2 | E12 | [Ec]3 [DB] [CA]2 [CE]4 [CF]2 | A6 z6 | d3 c B2 F4 G2 | F6 z6 | %14
 A6 B6 | c6 z6 | [Ec]3 B A2 G2 A2 B2 |[M:5/4] [CA]2- [CA]2- [CA]6 |] %18
V:2
 z6 z4 [A,,A,]2 | [A,,A,]4 [A,,A,]2 [A,,A,]4 [A,,A,]2 | [A,,A,]4 [A,,A,]2 [A,,E,]4 [A,,A,]2 | %3
 [D,A,]4 [D,D]2 [D,D]4 [F,A,D]2 |[M:5/4] [A,C]2- [A,C]2- [A,C]6 |[M:1/4] [C,A,]2 | %6
[M:6/4] [E,B,E]4 [E,B,E]2 [E,B,E]4 [D,B,]2 | [C,A,]4 [E,G,E]2 [A,E]4 [A,,A,]2 | %8
 [B,,G,]4 [B,,B,]2 [B,,B,]4 [B,,A,]2 | E,4- [E,-A,]2 [E,B,]6 | %10
 [A,,A,]4 [A,,E,]2 [A,,A,]4 [A,,A,]2 | [B,,E,]4 [B,,E,]2 .[E,B,D]6 | .B,6 z6 | %13
 [A,,A,]4 [A,,A,]2 .[A,,A,]6 | [C,A,]2 [C,A,]2 [C,A,]2 [E,G,E]2 [E,G,]2 [E,G,]2 | %15
 [A,E]2 A,2 A,2 [D,A,]4 [D,A,]2 | [D,A,]3 [E,DE] [E,CE]2 [E,B,D]2 [E,A,C]2 [E,G,D]2 | %17
[M:5/4] [A,,A,]2- [A,,A,]2- [A,,A,]6 |] %18
V:3
 x12 | x12 | x12 | x12 |[M:5/4] x10 |[M:1/4] x2 |[M:6/4] x12 | x12 | x12 | z4 C2 .D6 | x12 | %11
 D4 D2 .G6 | x12 | C4 C2 .[CE]6 | E2 E2 E2 z2 E2 E2 | z2 E2 _G2 [Fd]4 [Fd]2 | x12 |[M:5/4] x10 |] %18
V:4
 x12 | x12 | x12 | x12 |[M:5/4] x10 |[M:1/4] x2 |[M:6/4] x12 | x12 | x12 | .G,6 z6 | x12 | x12 | %12
 [E,E]3- [E,A,E] [E,G,D]2 [E,G,D]4 [E,G,D]2 | x12 | x12 | x12 | x12 |[M:5/4] x10 |] %18

